resources/svg/oracle.svg

<svg xmlns="http://www.w3.org/2000/svg" viewBox="0 0 24 24" fill="currentColor"><path fill="currentColor" fill-rule="evenodd" d="M7.957359,18.9123664 C4.11670252,18.9123664 1,15.803458 1,11.9617373 C1,8.12000773 4.11670252,5 7.957359,5 L16.0437948,5 C19.8855156,5 23,8.12000773 23,11.9617373 C23,15.803458 19.8855156,18.9123664 16.0437948,18.9123664 L7.957359,18.9123664 L7.957359,18.9123664 Z M15.8639176,16.4585488 C18.352201,16.4585488 20.3674397,14.448858 20.3674397,11.9617373 C20.3674397,9.47460595 18.352201,7.45381934 15.8639176,7.45381934 L8.1360824,7.45381934 C5.64895285,7.45381934 3.63255855,9.47460595 3.63255855,11.9617373 C3.63255855,14.448858 5.64895285,16.4585488 8.1360824,16.4585488 L15.8639176,16.4585488 L15.8639176,16.4585488 Z"/></svg>

<svg viewBox="0 0 24 24"><path fill="currentColor" fill-rule="evenodd" d="M7.957 18.912A6.953 6.953 0 0 1 1 11.962A6.963 6.963 0 0 1 7.957 5h8.087A6.961 6.961 0 0 1 23 11.962a6.952 6.952 0 0 1-6.956 6.95H7.957zm7.907-2.453a4.497 4.497 0 0 0 4.503-4.497a4.507 4.507 0 0 0-4.503-4.508H8.136a4.507 4.507 0 0 0-4.503 4.508a4.498 4.498 0 0 0 4.503 4.497h7.728z"/></svg>
